X: 1
T: Airie Bennan
T: 5 x 32J 5C (Hugh Foss)
P: Cock o' the North (AKA Winston's March)
C: Hunter Colln., from Barbara McOwen, arr. T. Traub 4-26-04
R: jig
M: 6/8
L: 1/8
K: A
%%scale .7
|: "E7"e2 d|"A"cdc cBA |"A"cde "D"f2 e|"A"cAc "F#m"cBA|"Bm"B3 "E"e2 d|"A"cdc cBA|"A"cde "D"f2 e|"A"cAc "G"B=GB |1 "A"A3 :|2 "A"Acd "E"efg||
"A" a2 e "D"f2 e|"A" a2 e "D"f2 e|"A"cAc "F#m"cBA|"Bm"B2 e "E"efg|"A" a2 e "D"f2 e|"A"a2 e "D"fga|"A"cAc "G"B=GB|"A"Acd "E"efg||
"A" a2 e "D"f2 e|"A" a2 e "D"f2 e|"A"cAc "F#m"cBA|"Bm"B3 "E"e2 d|"A"cdc cBA|"A"cde "D"f2 e|"A"cAc "G"B=GB|"A"A3 A2 |]
